X: 131
T: Xiu hebao
%%abc-version 2.0
%%abcx-abcm2ps-target-version 5.9.1 (29 Sep 2008)
%%abc-creator hum2abc beta
%%abcx-conversion-date 2013/10/02 07:52:29
%%abc-edited-by Helmut Schaffrath
%%humdrum-veritas 208354117
%%humdrum-veritas-data 3084383601
%%continueall 1
%%barnumbers 0
L: 1/16
M: 2/4
K: F
c2 c2 B2 f2 [I:setbarnb 1]| 
d2 c2 B2 G2 | 
c2 c d B2 G2 | 
F G E CF4 | 
G2c4B2 | 
c2 G FE4 | 
B2 B G F G E D | 
C2> B,2C4 | 
G2c4B2 | 
c2 G FE4 | 
B2 B G F G E D | 
C2> B,2C4 |]  



